X:504
T:Reel 504
M:4/4
K:Dmaj
L:1/8
f>d (3dcB A>F (3FEF | (3efe c>d e2c2| (3fgf df cdcdcA| (3Bcd ce ded2:| (3aba f>d  (3dcd f>a (3aba |gece g>ece|f>d (3dcd fdcd|Agab cdec|
